!!!COM: Louise Reichardt
!!!CNT: Deutsch
!!!TXO: Deutsch
!!!OTL: An Maria (aus Novalis geistlichen Liedern)
!!!LYR: Novalis (Georg Friedrich Freiherr von Hardenberg)
!!!OPR: 
!!!OPS: No opus information available
!!!ONM: No. 21
!!!ENC: Ben Fuhrman
!!!YOR: Louise Reichardt: Songs
!!!YOR: New York, Da Capo Press, 1981
!!!ODT: 1800 - 1826
!!NB: Only vocal melody encoded.
!!NB: First instance of melodic material only encoded.
!!created: 2/18/10 2:55PM
!!proofed and posted: 2/18/10 2:55PM
**kern	**silbe
*clef G2	*
*k[b-e-a-]	*
*M4/4	*
*MM[Sehr langsam und innig]	*
{8g	{Ich
8g	se-
8a-	-he
=1	=1
4.b-	dich
8b-	in
4.b-	tau-
8e-	-send
=2	=2
4e-	Bil-
4d	-dern,
8r	.
8a-	Ma-
8f	-ri-
8e-	-a
=3	=3
(4e-	lieb
8d)	|
8cc	-lich
(4cc	aus
8b-)	|
8a-	ge-
=4	=4
(a-q	dru2ck,
2g)}	|}
8r	.
{8g	{doch
8g	keins
8an	von
=5	=5
4.b-	al-
8b-	-len
4.bn	kann
8bn	dich
=6	=6
4dd	schil-
4cc	-dern,
8r	.
8cc	wie
8dd	mei-
8ee-	-ne
=7	=7
4.f	See-
8f	-le
(4fS	dich
8g)	|
8an	er-
=8	=8
2b-}	-blickt.}
4r	.
{4b-	{Ich
=9	=9
4.dd-	weiss
8b-	nur
8g	das
8a-	der
8b-	Welt
8d-	Ge-
=10	=10
4d-	-tu2m-
4c	-mel,
4r	.
4cc	seit
=11	=11
4cc	dem
4cc	mir
8.cc	wie
16cc	ein
(16b-	Traum
16a-)	|
(16g	ver-
16f)	|
=12	=12
(4e-	-weht,
4d)}	|}
8r	.
{8f	{und
8g	ine
8a-	un-
=13	=13
4.b-	-nenn-
8b-	-bar
(8b-	su2s
8cc	|
8dd)	|
8ee-	-ser
=14	=14
(8.ee-	Him-
16f)	|
!! A dot has been added to the next quarter note in order to fix a metric problem in the score. This is based on the allignment of the vocal and piano lines. -Fuhrman
4.f	-mel
8f	mir
8a-	e-
8cc	-wig
=15	=15
4.b-	im
8b-	Ge-
4.b-	-mu2-
8d	-the
=16	=16
2e-}	steht.}
2r	.
==	==
*-	*-
